X: 1989
T: Yine Bağlandı Dil...
C: Zekâî Dede
O: Turkey
F: http://compmusic.upf.edu/node/140
N: neva--sarki--yuruksemai_ii--yine_baglandi--zekai_dede
N: makam= neva
N: form= sarki
N: usul= yuruksemai_ii = 6/8
M: 6/8
L: 1/16
K: C _2/4B ^3/4f  
Q: 1/4=180
%%MIDI tuningsystem comma53
d2{e}d2 c2d2 {e}c2B2  | d2e2 f2g2 a4  | \
w:  ARANAĞME  |   | 
a4 g2ag fed2  | e4 d2ec d2z2  | 
w:   |   | 
dcd2 e2de d2c2  | cBc2 d2cd c2B2  | g2f2 g2a4e2  | 
w:   |   |   | 
e4 d2{e}d2 c2B2  | d2e2 c2{d}c2 B2{c}BA  | \
w:   |   | 
A6Bc d2z2  | d2{e}d2 c2d2 {e}c2B2  | 
w:   |  ARANAĞME  | 
d2e2 f2g2 a4  | a4 g2ag fed2  | e4 d2ec d2z2  | \
w:   |   |   | 
dcd2 e2de d2c2  | 
w:   | 
cBc2 d2cd c2B2  | g2f2 g2a4e2  | e4 d2{e}d2 c2B2  | \
w:   |   |   | 
d2e2 c2{d}c2 B2{c}BA  | 
w:   | 
A6z6  | d2d4A4G2  | c2B2 c2d4z2  | d4 g2f4d2  | \
w:   |  Yi ne  bağ  |  lan *  dı  dil   |  bir  *  nev  | 
e2e2 {f}edd4z2  | 
w:  ni ha *  *  *  le    | 
d2d4A4G2  | c2B2 c2d4z2  | d4 g2f4d2  | \
w:  Yi ne  bağ  |  lan *  dı  dil   |  bir  *  nev  | 
e2e2 {f}edd4z2  | f2e2 f2g4z2  | 
w:  ni ha *  *  *  le    |  Mi sa *  li   | 
f2e2 g2f2 e2d2  | {e}d2c2 B2{a}g2 f2e2  | \
w:  gel *  mez_ â  |  *  lem *  *  *  de   | 
e2e2 {f}edd4z2  | c2c2 d2d6  | 
w:  ha ya *  *  *  le    |  Mi sa *  li   | 
d4 a2g2 =f2e2  | d2c2 d2e2 d2c2  | {d}c2B2 {c}BAA6  | \
w:  gel mez_ â  |  lem *  *  de   |  *  ha ya *  *  *  le    | 
g2f2 g2a4b2  | 
w:  Ni geh  *  ak  | 
c'2b2 a2a2 g2f2  | f2e2 d2a2 g2f2  | \
w:  la  *  zi yan  |  dır  *  *  zülf_  | 
f2e3dde fga2  | g2f2 g2a4b2  | 
w:  ü  ha *  le   SAZ  |  Ni geh  *  ak  | 
c'2b2 a2a2 g2f2  | f2e2 d2a2 g2f2  | \
w:  la  *  zi yan  |  dır  *  *  zülf_  | 
f2e3dd4z2  | f2e2 f2g4z2  | 
w:  ü  ha *  le    |  A man *  sız   | 
f2e2 g2f2 e2d2  | d2c2 B2{a}g2 f2e2  | \
w:  gir *  mez_ â  |  gûş_ *  *  *  ı   | 
e2e2 {f}edd4z2  | c2c2 d2d6  | 
w:  vi sa *  *  *  le    |  Ne  sab *  ra   | 
d4 a2g2 =f2e2  | d2c2 d2e2 d2c2  | {d}c2B2 {c}BAA4z2  | \
w:  ça re  var   |  ne  *  *  arz_  |  *  ı  ha *  *  *  le    | 
f2e2 f2g4z2  | 
w:  A man *  sız   | 
f2e2 g2f2 e2d2  | d2c2 B2{a}g2 f2e2  | \
w:  gir *  mez_ â  |  gûş_ *  *  *  ı   | 
e2e2 {f}edd4z2  | c2c2 d2d6  | 
w:  vi sa *  *  *  le    |  Ne  sab *  ra   | 
d4 a2g2 =f2e2  | d2c2 d2e2 d2c2  | {d}c2B2 {c}BAA4z2  | \
w:  ça re  var   |  ne  *  *  arz_  |  *  ı  ha *  *  *  le    | 
d2{e}d2 c2d2 {e}c2B2  | 
w:  ARANAĞME  | 
d2e2 f2g2 a4  | a4 g2ag fed2  | e4 d2ec d2z2  | \
w:   |   |   | 
dcd2 e2de d2c2  | 
w:   | 
cBc2 d2cd c2B2  | g2f2 g2a4e2  | e4 d2{e}d2 c2B2  | \
w:   |   |   | 
d2e2 c2{d}c2 B2{c}BA  | 
w:   | 
A6Bc d2z2  | d2{e}d2 c2d2 {e}c2B2  | \
w:   |  ARANAĞME  | 
d2e2 f2g2 a4  | a4 g2ag fed2  | 
w:   |   | 
e4 d2ec d2z2  | dcd2 e2de d2c2  | cBc2 d2cd c2B2  | 
w:   |   |   | 
g2f2 g2a4e2  | e4 d2{e}d2 c2B2  | d2e2 c2{d}c2 B2{c}BA  | \
w:   |   |   | 
A6z6  | d2d4A4G2  | 
w:   |  Yi ne  bağ  | 
c2B2 c2d4z2  | d4 g2f4d2  | e2e2 {f}edd4z2  | \
w:  lan *  dı  dil   |  bir  *  nev  |  ni ha *  *  *  le    | 
d2d4A4G2  | c2B2 c2d4z2  | 
w:  Yi ne  bağ  |  lan *  dı  dil   | 
d4 g2f4d2  | e2e2 {f}edd4z2  | f2e2 f2g4z2  | \
w:  bir  *  nev  |  ni ha *  *  *  le    |  Mi sa *  li   | 
f2e2 g2f2 e2d2  | 
w:  gel *  mez_ â  | 
{e}d2c2 B2{a}g2 f2e2  | e2e2 {f}edd4z2  | \
w:  *  lem *  *  *  de   |  ha ya *  *  *  le    | 
c2c2 d2d6  | d4 a2g2 =f2e2  | 
w:  Mi sa *  li   |  gel mez_ â  | 
d2c2 d2e2 d2c2  | {d}c2B2 {c}BAA6  | \
w:  lem *  *  de   |  *  ha ya *  *  *  le    | 
g2f2 g2a4b2  | c'2b2 a2a2 g2f2  | 
w:  Ni geh  *  ak  |  la  *  zi yan  | 
f2e2 d2a2 g2f2  | f2e3dde fga2  | g2f2 g2a4b2  | \
w:  dır  *  *  zülf_  |  ü  ha *  le   SAZ  |  Ni geh  *  ak  | 
c'2b2 a2a2 g2f2  | 
w:  la  *  zi yan  | 
f2e2 d2a2 g2f2  | f2e3dd4z2  | f2e2 f2g4z2  | \
w:  dır  *  *  zülf_  |  ü  ha *  le    |  A man *  sız   | 
f2e2 g2f2 e2d2  | 
w:  gir *  mez_ â  | 
d2c2 B2{a}g2 f2e2  | e2e2 {f}edd4z2  | \
w:  gûş_ *  *  *  ı   |  vi sa *  *  *  le    | 
c2c2 d2d6  | d4 a2g2 =f2e2  | 
w:  Ne  sab *  ra   |  ça re  var   | 
d2c2 d2e2 d2c2  | {d}c2B2 {c}BAA4z2  | \
w:  ne  *  *  arz_  |  *  ı  ha *  *  *  le    | 
f2e2 f2g4z2  | f2e2 g2f2 e2d2  | 
w:  A man *  sız   |  gir *  mez_ â  | 
d2c2 B2{a}g2 f2e2  | e2e2 {f}edd4z2  | \
w:  gûş_ *  *  *  ı   |  vi sa *  *  *  le    | 
c2c2 d2d6  | d4 a2g2 =f2e2  | 
w:  Ne  sab *  ra   |  ça re  var   | 
d2c2 d2e2 d2c2  | {d}c2B2 {c}BAA4z2  | |


